X: 12886
T: Festival Of Tears, The
R: jig
M: 6/8
K: Eminor
D|EBB BAB|AGG AGF|GAB/c/ dAB|AGF E2D|
EBB BAB|AGG AGF|GAB/c/ dAB|AFE E2D||
EFA Bc/d/e|f3 dFF|AAB/c/ dcd|ecA c2E|
F/G/AB ede|fde dFF|AAB/c/ dGA|AGF E2||

